svgs/realme_link.svg

<svg xmlns="http://www.w3.org/2000/svg" viewBox="0 0 192 192"><path d="M96 45.271a51.649 51.649 0 0 0-30.137 9.688c-8.758 6.296-15.28 15.178-18.626 25.365a50.23 50.23 0 0 0 0 31.352c3.346 10.187 9.868 19.069 18.626 25.365A51.649 51.649 0 0 0 96 146.729a51.649 51.649 0 0 0 30.137-9.688c8.758-6.296 15.28-15.178 18.626-25.365a50.23 50.23 0 0 0 0-31.352c-3.346-10.187-9.868-19.069-18.626-25.365A51.649 51.649 0 0 0 96 45.271ZM45.519 87.113 64.26 16.5M45.519 87.113 44.728 96m101.753 8.887L127.74 175.5" fill="none" stroke="#000" stroke-width="12" stroke-linecap="round" stroke-linejoin="round"/></svg>

<svg
    xmlns="http://www.w3.org/2000/svg"
    viewBox="0 0 192 192"
    id="vector">
    <path
        id="path"
        d="M 96 45.271 C 85.174 45.271 74.621 48.663 65.863 54.959 C 57.105 61.255 50.583 70.137 47.237 80.324 C 43.892 90.511 43.892 101.489 47.237 111.676 C 50.583 121.863 57.105 130.745 65.863 137.041 C 74.621 143.337 85.174 146.729 96 146.729 C 106.826 146.729 117.379 143.337 126.137 137.041 C 134.895 130.745 141.417 121.863 144.763 111.676 C 148.108 101.489 148.108 90.511 144.763 80.324 C 141.417 70.137 134.895 61.255 126.137 54.959 C 117.379 48.663 106.826 45.271 96 45.271 Z M 45.519 87.113 L 64.26 16.5 M 45.519 87.113 L 44.728 96 M 146.481 104.887 L 127.74 175.5"
        fill="none"
        stroke="#000000"
        stroke-width="12"
        stroke-linecap="round"
        stroke-linejoin="round"/>
</svg>
